build/img/icon-star.svg

<svg width="16" height="16" viewBox="0 0 16 16" fill="none" xmlns="http://www.w3.org/2000/svg">
<path d="M7.14168 0.556577L5.18879 4.69357L0.819452 5.35911C0.035902 5.47784 -0.278116 6.48709 0.290107 7.06515L3.45122 10.2835L2.70356 14.8298C2.56898 15.6516 3.39739 16.2671 4.09122 15.8828L8 13.7362L11.9088 15.8828C12.6026 16.264 13.431 15.6516 13.2964 14.8298L12.5488 10.2835L15.7099 7.06515C16.2781 6.48709 15.9641 5.47784 15.1805 5.35911L10.8112 4.69357L8.85832 0.556577C8.50841 -0.180831 7.49458 -0.190205 7.14168 0.556577Z" fill="#E8E8E8"/>
</svg>

<svg width="16" height="16" fill="none" xmlns="http://www.w3.org/2000/svg"><path d="M7.142.557L5.189 4.694l-4.37.665C.036 5.478-.278 6.487.29 7.065l3.161 3.218-.747 4.547c-.135.822.693 1.437 1.387 1.053L8 13.736l3.909 2.147c.694.381 1.522-.231 1.387-1.053l-.747-4.546 3.16-3.219c.57-.578.255-1.587-.528-1.706l-4.37-.665L8.858.557a.94.94 0 00-1.716 0z" fill="#E8E8E8"/></svg>
